X:1
T:Christ the Lord Is King
T:Christ the Lord Is King
T:A. M. Wortman
T:Frances Jane (Fanny) Crosby, 1887
T:Public Domain Courtesy of the Cyber Hymnal™
T:Public Domain Courtesy of the Cyber Hymnal™
C:A. M. Wortman
Z:Public Domain
Z:Courtesy of the Cyber Hymnal™
%%score ( 1 2 ) ( 3 4 )
L:1/8
Q:1/4=110
M:4/4
K:Eb
V:1 treble 
V:2 treble 
V:3 bass 
V:4 bass 
V:1
 [GB]>[GB] | [Ge]3 [EB] [Ec]2 [Ad]2 | [Ge]8 | [EG]3 [DF] E2 [DF]2 | [EG]8 | [Ec]3 [Ec] [Ad]3 [Ad] | %6
w: 1.~Shout for|joy, ye ho- ly|throng,|Christ the Lord is|King;|An- gel harps, the|
w: 2.~Shout for|joy, ye na- tions|all,|Christ the Lord is|King;|Crowns be- fore His|
w: 3.~He Who|rent the boast- ing|grave,|Christ the Lord is|King;|He Who lives the|
w: 4.~Shout for|joy, ye realms of|night,|Christ the Lord is|King;|Hail the beams of|
 [Ge]2 [G=e]2 (f2 _e2) | [Fd]3 [Ec] [EG]2 [E=A]2 | [DB]8 ||[M:12/8]"^Refrain" [EG]2 [FA] | %10
w: sound pro- long, *|Christ the Lord is|King.||
w: throne shall fall, *|Christ the Lord is|King.|Bear the|
w: lost to save, *|Christ the Lord is|King.||
w: Gos- pel light, *|Christ the Lord is|King.||
 [GB]6- [GB]2 [GB] [Ge]2 [Ac] | [GB]6- [GB]3 [EG]2 [EG] | [DA]6- [DA]2 [DF] [Dc]2 [DB] | %13
w: |||
w: news * from pole to|pole, * Spread the|truth * from sea to|
w: |||
w: |||
 [EG]3- [EG]3- [EG]3 | [EG]2 [GB] | [Ge]6- [Ge]2 [GB] [Bd]2 [Ac] | [GB]6 [EG]3 | [GB]2 [Ge] | %18
w: |||||
w: sea, * *|Lo! the|Prince * of life and|glo- ry|King of|
w: |||||
w: |||||
 [Fd]6- [Fd]2 [DB] [Ec]2 [Fd] | e6- [Ge]2 |] %20
w: ||
w: heav’n * and earth shall|be. *|
w: ||
w: ||
V:2
 x2 | x8 | x8 | x4 E2 x2 | x8 | x8 | x4 F4 | x8 | x8 ||[M:12/8] x3 | x12 | x12 | x12 | x9 | x3 | %15
 x12 | x9 | x3 | x12 | G2 G A2 A x2 |] %20
V:3
 [E,E]>[E,E] | [E,B,]3 [G,B,] A,2 [F,B,]2 | [E,B,]8 | [E,B,]3 [E,A,] [E,G,]2 [B,,B,]2 | [E,B,]8 | %5
 A,3 A, [F,B,]3 [F,B,] | [E,B,]2 [C,B,]2 [F,=A,]4 | [F,=A,]3 [F,A,] [F,C]2 [F,C]2 | [B,,B,]8 || %9
[M:12/8] [E,B,]2 [E,B,] | ([E,E]2 [E,E] [E,E]2 [E,E] [E,E]3) [E,B,]2 [E,B,] | %11
 ([E,E]2 [E,E] [E,E]2 [E,E] [E,E]3) [E,B,]2 [E,B,] | %12
 [B,,B,]2 [B,,F,] [B,,F,]2 [B,,F,] [B,,F,]2 [B,,B,] [B,,B,]2 [B,,B,] | %13
 [E,B,]2 [E,B,] [E,B,]2 [E,B,] [E,B,]3 | [E,B,]2 [E,B,] | %15
 [E,B,]2 [E,B,] [E,B,]2 [E,B,] [E,B,]2 [E,E] [E,E]2 [E,E] | %16
 [E,E]2 [E,E] [E,E]2 [E,E] [E,B,]2 [E,B,] | [E,B,]2 [E,B,] | %18
 [B,,B,]2 [B,,B,] [B,,B,]2 [B,,B,] [B,,B,]2 [B,,B,] [B,,B,]2 [B,,B,] | B,2 B, C2 D [E,B,]2 |] %20
V:4
 x2 | x4 A,2 x2 | x8 | x8 | x8 | A,3 A, x4 | x8 | x8 | x8 ||[M:12/8] x3 | x12 | x12 | x12 | x9 | %14
 x3 | x12 | x9 | x3 | x12 | E,6- x2 |] %20

